images/github.svg

<svg width="20" height="20" viewBox="0 0 20 20" fill="none" xmlns="http://www.w3.org/2000/svg">
<g clip-path="url(#clip0)">
<path d="M10 0.416687C4.475 0.416687 0 4.81669 0 10.2434C0 14.5859 2.865 18.2684 6.8375 19.5667C7.3375 19.6592 7.52083 19.355 7.52083 19.0942C7.52083 18.8609 7.5125 18.2425 7.50833 17.4234C4.72667 18.0159 4.14 16.105 4.14 16.105C3.685 14.9709 3.0275 14.6675 3.0275 14.6675C2.12167 14.0584 3.0975 14.0709 3.0975 14.0709C4.10167 14.1392 4.62917 15.0834 4.62917 15.0834C5.52083 16.5859 6.97 16.1517 7.54167 15.9009C7.63167 15.265 7.88917 14.8325 8.175 14.5867C5.95417 14.3409 3.62 13.4959 3.62 9.73085C3.62 8.65835 4.0075 7.78169 4.64917 7.09419C4.53667 6.84585 4.19917 5.84669 4.73667 4.49335C4.73667 4.49335 5.57417 4.23002 7.48667 5.50085C8.28667 5.28252 9.13667 5.17419 9.98667 5.16919C10.8367 5.17419 11.6867 5.28252 12.4867 5.50085C14.3867 4.23002 15.2242 4.49335 15.2242 4.49335C15.7617 5.84669 15.4242 6.84585 15.3242 7.09419C15.9617 7.78169 16.3492 8.65835 16.3492 9.73085C16.3492 13.5059 14.0117 14.3367 11.7867 14.5784C12.1367 14.8734 12.4617 15.4759 12.4617 16.3967C12.4617 17.7117 12.4492 18.7684 12.4492 19.0875C12.4492 19.345 12.6242 19.6525 13.1367 19.5542C17.1375 18.2642 20 14.5792 20 10.2434C20 4.81669 15.5225 0.416687 10 0.416687Z" fill="white"/>
</g>
<defs>
<clipPath id="clip0">
<rect width="20" height="20" fill="white"/>
</clipPath>
</defs>
</svg>

<svg xmlns="http://www.w3.org/2000/svg" width="20" height="20" fill="none"  xmlns:v="https://vecta.io/nano"><g clip-path="url(#A)"><path d="M10 .417c-5.525 0-10 4.4-10 9.827 0 4.343 2.865 8.025 6.838 9.323.5.092.683-.212.683-.473l-.013-1.67c-2.782.592-3.368-1.318-3.368-1.318-.455-1.134-1.112-1.437-1.112-1.437-.906-.61.07-.597.07-.597 1.004.068 1.532 1.012 1.532 1.012.892 1.502 2.34 1.068 2.912.818.1-.636.348-1.068.633-1.314-2.22-.246-4.555-1.09-4.555-4.856 0-1.072.388-1.95 1.03-2.637-.112-.248-.45-1.248.088-2.6 0 0 .837-.263 2.75 1.007.8-.218 1.65-.327 2.5-.332.85.005 1.7.113 2.5.332 1.9-1.27 2.737-1.007 2.737-1.007.537 1.353.2 2.353.1 2.6.638.688 1.025 1.564 1.025 2.637 0 3.775-2.338 4.606-4.562 4.848.35.295.675.897.675 1.818l-.013 2.69c0 .258.175.565.688.467 4-1.3 6.863-4.975 6.863-9.31C20 4.817 15.523.417 10 .417z" fill="#fff"/></g><defs><clipPath id="A"><path fill="#fff" d="M0 0h20v20H0z"/></clipPath></defs></svg>
